X: 7
T: The Galway Rambler
R: reel
M: 4/4
L: 1/8
K: Gmaj
G2dg egdB|GBdB AGED|G2GA BGBd| gedB AGED|
G2dg egdB|GBdB AGEF|G2GA BGBd|gedB A2 Bd||
g2 gb a2 ab|gabg aged|g2 gb aged|gedB A2Bd|
gabg gabg|gabg a2ga|bgag edBd|gedB AGEF|]


Tune 634	Setting 13660

